X: 1
T: Longnancy's
M: 6/8
L: 1/8
R: jig
K: Gmaj
GBd g2d| dee dBA|GBd gge|edB dBA|
GBd ggd| dee dBA|ABB dBA|1GBA GED:|2GBA cED||
DEE CGB|GAG FED|EEE BBe|cdc BAG|
DEE CGB|GAG FGA|1ABB dBA|GBA GED:|2ABB dBd|ede fef||
gga bag|gag fed|dee ceg|gag fed|
gga bag|gag fed|1eBc dBA|ABd def:|2ece dBA|GBA GED||
